!!!!SEGMENT: pl-cz--iii-555--001-006_raszek-waclaw--requiem-sanctus.krn
!!!cenid: 17xx:1085
!!!COM: Raszek, Wacław
!!!COM-rismID: pe30020314
!!!CDT: <1848->1848
!!!CNT:
!!!OPR: Requiem
!!!OTL: Sanctus
!!!OMV: 006
!!!PDT:
!!!AGN: Sacred; Requiem
!!!SMS-siglum: PL-CZ
!!!SMS-shelfmark: III-555
!!!SMS-shelfwork: 001-006 M
!!!SMS-variant:
!!!SMS-altvar:
!!!NIFC-rismSourceID: 300001055
!!!NIFC-rismChildID: 300001055
!!!NIFC-islandoraID: pl-cz:38890
!!!URL-pdf-islandora: https://repozytorium.nifc.pl/islandora/object/pl-cz%3A38890/datastream/PDF/view
!!!URL-scan: https://polish.musicsources.pl/pl/lokalizacje/galeria/rekopisy/6945/1 @EN{Scan on Polish Music Sources Website} @PL{Skany w portalu Dziedzictwo Muzyki Polskiej w otwartym dostępie}
!!!ONB-nifc: UWAGA: części Requiem: Requiem, Kyrie, Dies irae, Qui Mariam, Domine Jesu Christe, Sanctus, Pleni sunt, Benedictus, Agnus Dei, Lux aeterna
!!!AIN: 1 alto 1 bass 2 clars 2 cor 1 fagot 1 soprn 1 tenor 1 viole
!!!key: c
!!!OMD:
!!!OMD-mod: Adagio
**kern	**dynam	**kern	**text	**dynam	**kern	**text	**dynam	**kern	**text	**dynam	**kern	**text	**dynam	**kern	**dynam	**kern	**dynam	**kern	**dynam	**kern	**dynam
*	*	*group3	*	*	*group3	*	*	*group3	*	*	*group3	*	*	*group2	*	*group2	*	*group1	*	*group1	*
*part9	*part9	*part8	*part8	*part8	*part7	*part7	*part7	*part6	*part6	*part6	*part5	*part5	*part5	*part4	*part4	*part3	*part3	*part2	*part2	*part1	*part1
*staff9	*	*staff8	*staff8	*	*staff7	*staff7	*	*staff6	*staff6	*	*staff5	*staff5	*	*staff4	*	*staff3	*	*staff2	*	*staff1	*
*Ifagot|Iviole	*	*Ibass	*	*	*Itenor	*	*	*Ialto	*	*	*Isoprn	*	*	*Icor	*	*Icor	*	*Iclars	*	*Iclars	*
*I"Fagoto vel Violone.	*	*I"Baſso.	*	*	*I"Tenore.	*	*	*I"Alto	*	*	*I"Canto	*	*	*I"Cornu IIdo in Dis.	*	*I"Corno Imo in dis	*	*I"Clarinetto 2do in B.	*	*I"Clarinetto Imo in B.	*
*mI"Fagoto vel Violone	*	*mI"Basso	*	*	*mI"Tenore	*	*	*	*	*	*mI"Soprano	*	*	*mI"Corno II in Eb	*	*mI"Corno I in Eb	*	*mI"Clarinetto II in Bb	*	*mI"Clarinetto I in Eb	*
*I'fag vel vlne	*	*I'B	*	*	*I'T	*	*	*I'A	*	*	*I'S	*	*	*I'cor in E|b	*	*I'cor in E|b	*	*I'cl 2 in B|b	*	*I'cl 1 in B|b	*
*ICww|ICstr	*	*ICvox	*	*	*ICvox	*	*	*ICvox	*	*	*ICvox	*	*	*ICbras	*	*ICbras	*	*ICww	*	*ICww	*
*	*	*IGcoro	*	*	*IGcoro	*	*	*IGcoro	*	*	*IGcoro	*	*	*	*	*	*	*	*	*	*
*clefF4	*	*clefF4	*	*	*clefC4	*	*	*clefC3	*	*	*clefC1	*	*	*clefG2	*	*clefG2	*	*clefG2	*	*clefG2	*
*	*	*	*	*	*mclefGv2	*	*	*mclefG2	*	*	*mclefG2	*	*	*	*	*	*	*	*	*	*
*	*	*	*	*	*	*	*	*	*	*	*	*	*	*ITrd5c9	*	*ITrd5c9	*	*ITrd1c2	*	*ITrd1c2	*
*k[e-a-b-]	*	*k[e-b-a-]	*	*	*k[e-b-a-]	*	*	*k[b-e-a-]	*	*	*k[b-e-a-]	*	*	*k[b-e-a-]	*	*k[b-e-a-]	*	*k[b-e-a-]	*	*k[b-e-a-]	*
*mk[b-e-a-]	*	*mk[b-e-a-]	*	*	*mk[b-e-a-]	*	*	*	*	*	*	*	*	*	*	*	*	*	*	*	*
*c:	*	*c:	*	*	*c:	*	*	*c:	*	*	*c:	*	*	*c:	*	*c:	*	*c:	*	*c:	*
*M3/4	*	*M3/4	*	*	*M3/4	*	*	*M3/4	*	*	*M3/4	*	*	*M3/4	*	*M3/4	*	*M3/4	*	*M3/4	*
=1	=1	=1	=1	=1	=1	=1	=1	=1	=1	=1	=1	=1	=1	=1	=1	=1	=1	=1	=1	=1	=1
*	*	*	*	*	*2\right	*	*	*2\right	*	*	*2\right	*	*	*	*	*	*	*all\right	*	*2\right	*
!LO:TX:t=P:problem=znaki E- A- BB-	!	!LO:TX:t=P:problem=znaki E- B- AA-	!	!	!LO:TX:t=P:problem=znaki E- B- A-	!	!	!	!	!	!	!	!	!	!	!	!	!	!	!	!
!	!	!	!	!	!LO:TX:a:i:t=adagio:mod=	!	!	!LO:TX:a:Bi:t=adagio:mod=	!	!	!LO:TX:a:i:t=adagio:mod=	!	!	!LO:TX:a:i:t=Adagio.:mod=	!	!LO:TX:a:i:t=Adagio:mod=	!	!LO:TX:a:i:t=Adagio:mod=	!	!LO:TX:a:i:t=adagio:mod=	!
4EE-/	.	4E-\	San-	.	2B-\	San-	.	2g\	San-	.	2ee-\	San-	.	4E-/	.	4e-\	.	2g/	.	2ee-\	.
4GG/	.	4GG/	.	.	.	.	.	.	.	.	.	.	.	4E-/	.	4e-\	.	.	.	.	.
4BB-/	.	4BB-/	-ctus	.	4e-\	-ctus	.	4g\	-ctus	.	4ee-\	-ctus	.	4E-/	.	4e-\	.	4g/	.	4ee-\	.
=2	=2	=2	=2	=2	=2	=2	=2	=2	=2	=2	=2	=2	=2	=2	=2	=2	=2	=2	=2	=2	=2
*	*	*2\right	*	*	*	*ij	*	*	*ij	*	*	*ij	*	*	*	*2\right	*	*	*	*	*
!	!	!	!LO:MO:null:mod=San-	!	!	!	!	!	!	!	!	!	!	!	!	!	!	!	!	!	!
4E-\	.	2E-\	.	.	2e-\	San-	.	4g\	San-	.	4ee-\	San-	.	2E-/	.	2e-\	.	4g/	.	4ee-\	.
4EE-/	.	.	.	.	.	.	.	4b-\	.	.	4dd\	.	.	.	.	.	.	4b-/	.	4dd\	.
!	!	!	!LO:MO:null:mod=-ctus	!	!	!	!	!	!	!	!	!	!	!	!	!	!	!	!	!	!
4r	.	4E-\	.	.	4e-\	-ctus	.	4a-\	-ctus	.	4cc\	-ctus	.	4r	.	4r	.	4a-/	.	4cc\	.
*	*	*	*	*	*	*Xij	*	*	*Xij	*	*	*Xij	*	*	*	*	*	*	*	*	*
=3	=3	=3	=3	=3	=3	=3	=3	=3	=3	=3	=3	=3	=3	=3	=3	=3	=3	=3	=3	=3	=3
4E-\	.	4E-\	San-	.	4e-\	San-	.	4a-\	San-	.	4cc\	San-	.	4E-/	.	4e-\	.	8a-/L	.	8cc\L	.
.	.	.	.	.	.	.	.	.	.	.	.	.	.	.	.	.	.	16g/L	.	16b-\L	.
.	.	.	.	.	.	.	.	.	.	.	.	.	.	.	.	.	.	16a-/JJ	.	16cc\JJ	.
!	!	!	!	!	!	!	!	!LO:TX:t=P:problem=w źródle skreślona kreska taktowa	!	!	!	!	!	!	!	!	!	!	!	!	!
4EE-/	.	4EE-/	-ctus	.	4e-\	-ctus	.	4g\	-ctus	.	4b-\	-ctus	.	8E-/L	.	8e-\L	.	8g/L	.	8b-\L	.
.	.	.	.	.	.	.	.	.	.	.	.	.	.	8G/	.	8e-\	.	8g/	.	8ee-\	.
4r	.	4r	.	.	4r	.	.	4r	.	.	4r	.	.	8G/	.	8e-\	.	8g/	.	8ee-\	.
.	.	.	.	.	.	.	.	.	.	.	.	.	.	8G/J	.	8e-\J	.	8g/J	.	8ee-\J	.
=4	=4	=4	=4	=4	=4	=4	=4	=4	=4	=4	=4	=4	=4	=4	=4	=4	=4	=4	=4	=4	=4
*	*	*	*ij	*	*	*	*	*	*ij	*	*	*	*	*	*	*	*	*	*	*	*
4B-\	.	4B-\	San-	.	4B-\	San-	.	4g\	San-	.	4ee-\	San-	.	4G/	.	4e-\	.	4g\	.	4ee-\	.
4BB-/	.	4BB-/	-ctus	.	8B-\L	.	.	4f\	-ctus	.	8dd\L	.	.	8B-\L	.	8f\L	.	8b-\L	.	8dd\L	.
!	!	!	!	!	!LO:SIC:s=8c	!	!	!	!	!	!	!	!	!	!	!	!	!	!	!	!
.	.	.	.	.	8c\J	.	.	.	.	.	8ee-\	.	.	8e-\	.	8e-\	.	8cc\	.	8ee-\	.
!	!	!	!	!	!LO:SIC:s=8d	!	!	!	!	!	!	!	!	!	!	!	!	!	!	!	!
4r	.	4r	.	.	8d\L	.	.	4r	.	.	8ff\	.	.	8B-\	.	8f\	.	8dd\	.	8ff\	.
.	.	.	.	.	8e-\J	.	.	.	.	.	8gg\J	.	.	8e-\J	.	8g\J	.	8ee-\J	.	8gg\J	.
!	!	!	!	!	!	!	!	!	!	!	!	!	!	!	!	!	!	!LO:LB:g=original	!	!	!
=5	=5	=5	=5	=5	=5	=5	=5	=5	=5	=5	=5	=5	=5	=5	=5	=5	=5	=5	=5	=5	=5
4BB-/	.	4BB-/	San-	.	4f\	.	.	2f\	San-	.	4aa-\	.	.	4f\	.	4a-\	.	4ff\	.	4aa-\	.
4D/	.	4D/	.	.	4B-\	.	.	.	.	.	4a-\	.	.	4B-/	.	4f\	.	4f/	.	4a-\	.
4BB-/	.	4BB-/	-ctus	.	4B-\	-ctus	.	4f\	-ctus	.	4a-\	-ctus	.	4B-/	.	4f\	.	4f/	.	4a-\	.
*	*	*	*Xij	*	*	*	*	*	*	*	*	*	*	*	*	*	*	*	*	*	*
=6	=6	=6	=6	=6	=6	=6	=6	=6	=6	=6	=6	=6	=6	=6	=6	=6	=6	=6	=6	=6	=6
*	*	*	*ij	*	*	*ij	*	*	*	*	*	*ij	*	*	*	*	*	*	*	*	*
4E-\	.	4E-\	San-	.	4B-\	San-	.	4f\	San-	.	4a-\	San-	.	4B-/	.	4f\	.	4f/	.	4a-\	.
!	!	!	!	!	!	!	!	!	!	!	!	!	!	!	!	!	!	!	!	!LO:TX:t=P:problem=mixed beam	!
4EE-/	.	4EE-/	-ctus	.	4B-\	-ctus	.	4e-\	-ctus	.	4g\	-ctus	.	4G/	.	4e-\	.	4e-/	.	8g/L	.
.	.	.	.	.	.	.	.	.	.	.	.	.	.	.	.	.	.	.	.	8bb-\	.
*	*	*	*Xij	*	*	*	*	*	*	*	*	*Xij	*	*	*	*	*	*	*	*	*
8r	.	4r	.	.	4r	.	.	4r	.	.	4r	.	.	8r	.	8r	.	8r	.	8gg\	.
8E-\	.	.	.	.	.	.	.	.	.	.	.	.	.	8e-\	.	8g\	.	8g/	.	8ee-\J	.
=7	=7	=7	=7	=7	=7	=7	=7	=7	=7	=7	=7	=7	=7	=7	=7	=7	=7	=7	=7	=7	=7
*	*	*	*ij	*	*	*	*	*	*	*	*	*ij	*	*	*	*	*	*	*	*	*
4B-\	.	4B-\	San-	.	4B-\	San-	.	4g\	San-	.	4ee-\	San-	.	4e-\	.	4g\	.	4g/	.	4ee-\	.
4BB-/	.	4BB-/	-ctus	.	4B-\	-ctus	.	4f\	-ctus	.	4dd\	-ctus	.	4B-/	.	4f\	.	4f/	.	8dd\L	.
.	.	.	.	.	.	.	.	.	.	.	.	.	.	.	.	.	.	.	.	8ff\	.
*	*	*	*Xij	*	*	*Xij	*	*	*Xij	*	*	*Xij	*	*	*	*	*	*	*	*	*
4r	.	4r	.	.	4r	.	.	4r	.	.	4r	.	.	4r	.	4r	.	4r	.	8dd\	.
.	.	.	.	.	.	.	.	.	.	.	.	.	.	.	.	.	.	.	.	8b-\J	.
!	!	!	!	!	!	!	!	!	!	!	!	!	!	!	!	!LO:LB:g=original	!	!	!	!	!
=8	=8	=8	=8	=8	=8	=8	=8	=8	=8	=8	=8	=8	=8	=8	=8	=8	=8	=8	=8	=8	=8
*	*	*	*	*	*	*	*	*	*	*	*	*	*	*2\right	*	*	*	*	*	*	*
!	!LBR	!	!	!LBR	!	!	!LBR	!	!	!LBR	!	!	!	!	!	!	!	!	!LBR	!	!LBR
!	!null	!	!	!null	!	!	!null	!	!	!null	!	!	!	!	!	!	!	!	!null	!	!null
!	!LO:MO:null:mod=p	!	!	!LO:MO:null:mod=p	!	!	!LO:MO:null:mod=p	!	!	!LO:MO:null:mod=p	!	!	!LO:DY:b	!	!LO:DY:a:rj:t=p.	!	!LO:MO:null:mod=p	!	!LO:MO:null:mod=p	!	!LO:MO:null:mod=p
4c\	.	4c\	Do-	.	4.An\	Do-	.	4.f\	Do-	.	4.ee-\	Do-	p	2f\	p	2f\	.	16F/LL	.	4ee-\	.
.	.	.	.	.	.	.	.	.	.	.	.	.	.	.	.	.	.	16A/	.	.	.
.	.	.	.	.	.	.	.	.	.	.	.	.	.	.	.	.	.	16c/	.	.	.
!	!	!	!	!	!	!	!	!	!	!	!	!	!	!	!	!	!LO:DY:a:t=p&colon;	!	!	!	!
!	!	!	!	!	!	!	!	!	!	!	!	!	!	!	!	!	!LO:MO:mod=.	!	!	!	!
.	.	.	.	.	.	.	.	.	.	.	.	.	.	.	.	.	p	16A/JJ	.	.	.
*	*	*	*	*	*	*	*	*	*	*	*	*	*	*	*	*	*	*rep	*	*	*
4An\	.	4An\	-mi-	.	.	.	.	.	.	.	.	.	.	.	.	.	.	16F/LL	.	8r	.
.	.	.	.	.	.	.	.	.	.	.	.	.	.	.	.	.	.	16A/	.	.	.
.	.	.	.	.	8c\	-mi-	.	8f\	-mi-	.	8ee-\	-mi-	.	.	.	.	.	16c/	.	8ee-\L	.
.	.	.	.	.	.	.	.	.	.	.	.	.	.	.	.	.	.	16A/JJ	.	.	.
*	*	*	*	*	*	*	*	*	*	*	*	*	*	*	*	*	*	*Xrep	*	*	*
4F\	.	4F\	-nus	.	4c\	-nus	.	4f\	-nus	.	4ee-\	-nus	.	4f\	.	4f\	.	16F/LL	.	8ee-\	.
.	.	.	.	.	.	.	.	.	.	.	.	.	.	.	.	.	.	16A/	.	.	.
.	.	.	.	.	.	.	.	.	.	.	.	.	.	.	.	.	.	16c/	.	8ee-\J	.
.	.	.	.	.	.	.	.	.	.	.	.	.	.	.	.	.	.	16A/JJ	.	.	.
=9	=9	=9	=9	=9	=9	=9	=9	=9	=9	=9	=9	=9	=9	=9	=9	=9	=9	=9	=9	=9	=9
4B-\	.	4B-\	De-	.	2B-\	De-	.	2f\	De-	.	2dd\	De-	.	2f\	.	2f\	.	16F/LL	.	8ee-\L	.
.	.	.	.	.	.	.	.	.	.	.	.	.	.	.	.	.	.	16B-/	.	.	.
.	.	.	.	.	.	.	.	.	.	.	.	.	.	.	.	.	.	16d/	.	8dd\J	.
.	.	.	.	.	.	.	.	.	.	.	.	.	.	.	.	.	.	16B-/JJ	.	.	.
*	*	*	*	*	*	*	*	*	*	*	*	*	*	*	*	*	*	*rep	*	*	*
4BB-/	.	4BB-/	-us	.	.	.	.	.	.	.	.	.	.	.	.	.	.	16F/LL	.	8r	.
!	!	!	!	!	!	!	!	!	!	!	!	!	!	!	!	!	!	!LO:TX:b:t=c:mod=	!	!	!
.	.	.	.	.	.	.	.	.	.	.	.	.	.	.	.	.	.	16B-/	.	.	.
.	.	.	.	.	.	.	.	.	.	.	.	.	.	.	.	.	.	16d/	.	8dd\L	.
.	.	.	.	.	.	.	.	.	.	.	.	.	.	.	.	.	.	16B-/JJ	.	.	.
*	*	*	*	*	*	*	*	*	*	*	*	*	*	*	*	*	*	*Xrep	*	*	*
4r	.	4r	.	.	8B-\L	-us	.	4f\	-us	.	8dd\L	-us	.	8f\L	.	8f\L	.	16F/LL	.	8ff\	.
.	.	.	.	.	.	.	.	.	.	.	.	.	.	.	.	.	.	16B-/	.	.	.
.	.	.	.	.	8d\J	.	.	.	.	.	8ff\J	.	.	8f\J	.	8f\J	.	16d/	.	8ff\J	.
.	.	.	.	.	.	.	.	.	.	.	.	.	.	.	.	.	.	16B-/JJ	.	.	.
!	!	!LO:LB:g=original	!	!	!	!	!	!	!	!	!	!	!	!	!	!	!	!	!	!LO:LB:g=original	!
=10	=10	=10	=10	=10	=10	=10	=10	=10	=10	=10	=10	=10	=10	=10	=10	=10	=10	=10	=10	=10	=10
!LO:TX:t=P:problem=tt.10-11 zapisane repetycją	!	!	!	!	!	!	!	!	!	!	!	!	!	!	!	!	!	!LO:TX:t=P:problem=tt.10-11 zapisane repetycją, z adnotacją "bis"	!	!	!
4c\yy	.	4c\	Sa-	.	2An\	Sa-	.	2f\	Sa-	.	2ee-\	Sa-	.	2f\	.	2f\	.	16F/LLyy	.	8ff\L	.
.	.	.	.	.	.	.	.	.	.	.	.	.	.	.	.	.	.	16A/yy	.	.	.
.	.	.	.	.	.	.	.	.	.	.	.	.	.	.	.	.	.	16c/yy	.	8ee-\J	.
.	.	.	.	.	.	.	.	.	.	.	.	.	.	.	.	.	.	16A/JJyy	.	.	.
*	*	*	*	*	*	*	*	*	*	*	*	*	*	*	*	*	*	*rep	*	*	*
4An\yy	.	4An\	.	.	.	.	.	.	.	.	.	.	.	.	.	.	.	16F/LLyy	.	8r	.
.	.	.	.	.	.	.	.	.	.	.	.	.	.	.	.	.	.	16A/yy	.	.	.
.	.	.	.	.	.	.	.	.	.	.	.	.	.	.	.	.	.	16c/yy	.	8ee-\L	.
.	.	.	.	.	.	.	.	.	.	.	.	.	.	.	.	.	.	16A/JJyy	.	.	.
*	*	*	*	*	*	*	*	*	*	*	*	*	*	*	*	*	*	*Xrep	*	*	*
4F\yy	.	4F\	-ba-	.	4c\	-ba-	.	4f\	-ba-	.	4ee-\	-ba-	.	4f\	.	4f\	.	16F/LLyy	.	8ee-\	.
.	.	.	.	.	.	.	.	.	.	.	.	.	.	.	.	.	.	16A/yy	.	.	.
.	.	.	.	.	.	.	.	.	.	.	.	.	.	.	.	.	.	16c/yy	.	8ee-\J	.
.	.	.	.	.	.	.	.	.	.	.	.	.	.	.	.	.	.	16A/JJyy	.	.	.
!	!	!	!	!	!	!	!	!LO:LB:g=original	!	!	!LO:LB:g=original	!	!	!LO:LB:g=original	!	!	!	!	!	!	!
=11	=11	=11	=11	=11	=11	=11	=11	=11	=11	=11	=11	=11	=11	=11	=11	=11	=11	=11	=11	=11	=11
4B-\yy	.	4B-\	-oth	.	4B-\	-oth	.	4f\	-oth	.	4dd\	-oth	.	2f\	.	2f\	.	16F/LLyy	.	8ee-\L	.
.	.	.	.	.	.	.	.	.	.	.	.	.	.	.	.	.	.	16B-/yy	.	.	.
.	.	.	.	.	.	.	.	.	.	.	.	.	.	.	.	.	.	16d/yy	.	8dd\J	.
.	.	.	.	.	.	.	.	.	.	.	.	.	.	.	.	.	.	16B-/JJyy	.	.	.
*	*	*	*	*	*	*	*	*	*	*	*	*	*	*	*	*	*	*rep	*	*	*
4BB-/yy	.	4r	.	.	4r	.	.	4r	.	.	4r	.	.	.	.	.	.	16F/LLyy	.	8r	.
!	!	!	!	!	!	!	!	!	!	!	!	!	!	!	!	!	!	!LO:TX:b:t=c:mod=	!	!	!
.	.	.	.	.	.	.	.	.	.	.	.	.	.	.	.	.	.	16B-/yy	.	.	.
.	.	.	.	.	.	.	.	.	.	.	.	.	.	.	.	.	.	16d/yy	.	8dd\L	.
.	.	.	.	.	.	.	.	.	.	.	.	.	.	.	.	.	.	16B-/JJyy	.	.	.
*	*	*	*	*	*	*	*	*	*	*	*	*	*	*	*	*	*	*Xrep	*	*	*
4ryy	.	4r	.	.	4r	.	.	4r	.	.	4r	.	.	4f\	.	4f\	.	16F/LLyy	.	8dd\	.
.	.	.	.	.	.	.	.	.	.	.	.	.	.	.	.	.	.	16B-/yy	.	.	.
.	.	.	.	.	.	.	.	.	.	.	.	.	.	.	.	.	.	16d/yy	.	8dd\J	.
.	.	.	.	.	.	.	.	.	.	.	.	.	.	.	.	.	.	16B-/JJyy	.	.	.
=12	=12	=12	=12	=12	=12	=12	=12	=12	=12	=12	=12	=12	=12	=12	=12	=12	=12	=12	=12	=12	=12
*	*	*	*ij	*	*	*ij	*	*	*ij	*	*	*ij	*	*	*	*	*	*	*	*	*
!	!	!	!	!LBR	!	!	!LBR	!	!	!LBR	!	!	!LBR	!	!	!	!	!	!LBR	!	!LBR
!	!	!	!	!null	!	!	!null	!	!	!null	!	!	!null	!	!	!	!	!	!null	!	!null
!	!LO:DY:b:t=for	!	!	!LO:MO:null:mod=f	!	!	!LO:MO:null:mod=f	!	!	!LO:MO:null:mod=f	!	!	!LO:MO:null:mod=f	!	!LO:DY:a:t=for.	!	!LO:DY:a:t=for&colon;	!	!| shed -e "s/yy//"	!	!LO:MO:null:mod=f
4.G\	f	4.G\	Do-	.	4.dn\	Do-	.	4.g\	Do-	.	4.ff\	Do-	.	4.G/	f	4.g\	f	4.dd\	.	4.ff\	.
8G\	.	8G\	-mi-	.	8c\	-mi-	.	8g\	-mi-	.	8ee-\	-mi-	.	8G/	.	8g\	.	8cc\	.	8ee-\	.
4GG/	.	4G\	-nus	.	4Bn\	-nus	.	4g\	-nus	.	4dd\	-nus	.	4G/	.	4g\	.	4bX\	.	4dd\	.
!	!	!	!	!	!LO:LB:g=original	!	!	!	!	!	!	!	!	!	!	!	!	!	!	!	!
=13	=13	=13	=13	=13	=13	=13	=13	=13	=13	=13	=13	=13	=13	=13	=13	=13	=13	=13	=13	=13	=13
4C/	.	4C\	De-	.	4c\	De-	.	4g\	De-	.	4ee-\	De-	.	2G/	.	2g\	.	4g/	.	4ee-\	.
4D\	.	4D\	.	.	4G/	.	.	4f\	.	.	4bn\	.	.	.	.	.	.	4f/	.	4bX\	.
4E-\	.	4E-\	-us	.	4G/	-us	.	4g\	-us	.	4cc\	-us	.	4r	.	4r	.	4g/	.	4cc\	.
=14	=14	=14	=14	=14	=14	=14	=14	=14	=14	=14	=14	=14	=14	=14	=14	=14	=14	=14	=14	=14	=14
*2\right	*	*	*	*	*	*	*	*	*	*	*	*	*	*	*	*	*	*	*	*	*
!	!	!	!	!	!	!	!	!	!	!	!	!	!	!LO:TX:a:t=1.:mod=	!	!LO:TX:a:t=1.:mod=	!	!	!	!	!
2F#X\	.	2F#X\	Sa-	.	2An\	Sa-	.	2e-\	Sa-	.	2cc\	Sa-	.	2.r	.	2.r	.	2e-/	.	2cc\	.
4F#\	.	4F#\	-ba-	.	4A\	-ba-	.	4e-\	-ba-	.	4cc\	-ba-	.	.	.	.	.	4e-/	.	4cc\	.
=15	=15	=15	=15	=15	=15	=15	=15	=15	=15	=15	=15	=15	=15	=15	=15	=15	=15	=15	=15	=15	=15
!	!	!	!	!	!	!	!	!	!	!	!LO:SIC:v:s=4bn\	!	!	!	!LO:DY:a:rj:t=p.	!	!LO:DY:a:rj:t=p&colon;	!LO:SIC:v:s=4d/	!	!	!
4G\	.	4G\	-oth	.	4G/	-oth	.	4d\	-oth	.	4b-\	-oth	.	2.G/	p	2.g\	p	4e-/	.	4bX\	.
*	*	*	*Xij	*	*	*Xij	*	*	*Xij	*	*	*Xij	*	*	*	*	*	*	*	*	*
!	!	!	!	!	!	!	!	!	!	!	!	!	!	!	!	!	!	!	!LBR	!	!LBR
!	!	!	!	!	!	!	!	!	!	!	!	!	!	!	!	!	!	!	!null	!	!null
!	!	!	!	!	!	!	!	!	!	!	!	!	!	!	!	!	!	!	!LO:MO:null:mod=p	!	!LO:MO:null:mod=p
4GG/	.	4r	.	.	4r	.	.	4r	.	.	4r	.	.	.	.	.	.	8bX\L	.	8gg\L	.
.	.	.	.	.	.	.	.	.	.	.	.	.	.	.	.	.	.	8dd\	.	8ff\	.
4r	.	4r	.	.	4r	.	.	4r	.	.	4r	.	.	.	.	.	.	8dd\	.	8ff\	.
.	.	.	.	.	.	.	.	.	.	.	.	.	.	.	.	.	.	8dd\J	.	8ff\J	.
=16	=16	=16	=16	=16	=16	=16	=16	=16	=16	=16	=16	=16	=16	=16	=16	=16	=16	=16	=16	=16	=16
!	!	!LO:TX:a:t=1:mod=	!	!	!LO:TX:a:t=1:mod=	!	!	!LO:TX:a:t=1:mod=	!	!	!LO:TX:a:t=1:mod=	!	!	!	!	!	!	!	!	!	!
4G\	p	2.r	.	.	2.r	.	.	2.r	.	.	2.r	.	.	2.G/	.	2.g\	.	(8dd\L	.	(8ff\L	.
!	!	!	!	!	!	!	!	!	!	!	!	!	!	!	!	!	!	!LO:SIC:s=8cc)	!	!	!
.	.	.	.	.	.	.	.	.	.	.	.	.	.	.	.	.	.	8cc\J)	.	8ee-\)	.
!	!	!	!	!	!	!	!	!	!	!	!	!	!	!	!	!	!	!LO:SIC:s=8cc|	!	!	!
4GG/	.	.	.	.	.	.	.	.	.	.	.	.	.	.	.	.	.	8cc|\L	.	8ee-|\	.
!	!	!	!	!	!	!	!	!	!	!	!	!	!	!	!	!	!	!LO:SIC:s=8cc|J	!	!	!
.	.	.	.	.	.	.	.	.	.	.	.	.	.	.	.	.	.	8cc|\	.	8ee-|\J	.
!	!	!	!	!	!	!	!	!	!	!	!	!	!	!	!	!	!	!LO:SIC:s=(8ddL	!	!	!
4r	.	.	.	.	.	.	.	.	.	.	.	.	.	.	.	.	.	(8dd\	.	(8ff\L	.
.	.	.	.	.	.	.	.	.	.	.	.	.	.	.	.	.	.	8cc\J)	.	8ee-\J)	.
=17	=17	=17	=17	=17	=17	=17	=17	=17	=17	=17	=17	=17	=17	=17	=17	=17	=17	=17	=17	=17	=17
!	!	!	!	!LBR	!	!	!LBR	!	!	!LBR	!	!	!	!	!	!	!	!	!	!	!
!	!	!	!	!null	!	!	!null	!	!	!null	!	!	!	!	!	!	!	!	!	!	!
!	!	!	!	!LO:MO:null:mod=p	!	!	!LO:MO:null:mod=p	!	!	!LO:MO:null:mod=p	!	!	!LO:DY:a:rj	!	!	!	!	!	!	!	!
4C\	.	4C\	Sa-	.	2G/	Sa-	.	2e-\	Sa-	.	2cc\	Sa-	p	4G/	.	4g\	.	4cc\	.	4ee-\	.
4E-\	.	4E-\	.	.	.	.	.	.	.	.	.	.	.	4G/	.	4g\	.	4cc\	.	4ee-\	.
4C\	.	4C\	-ba-	.	4G/	-ba-	.	4e-\	-ba-	.	4dd\	-ba-	.	4G/	.	4g\	.	4cc\	.	4ee-\	.
=18	=18	=18	=18	=18	=18	=18	=18	=18	=18	=18	=18	=18	=18	=18	=18	=18	=18	=18	=18	=18	=18
*	*	*	*	*	*	*	*	*	*	*	*	*	*	*	*	*	*	*2\right	*	*	*
!	!	!	!	!	!	!	!	!	!	!	!LO:SIC:s=2.bn;	!	!	!	!	!	!	!	!	!	!
2GG;/	.	2GG;/	-oth	.	2G;/	-oth	.	2d;\	-oth	.	2.bn\	-oth	.	2G;/	.	2g;\	.	2bX;\	.	2.dd;\	.
!	!	!	!	!	!	!	!	!	!	!	!	!	!	!	!	!	!	!LO:TX:b:i:t=Verte cito:mod=	!	!	!
4r	.	4r	.	.	4r	.	.	4r	.	.	.	.	.	4r	.	4r	.	4r	.	.	.
==	==	==	==	==	==	==	==	==	==	==	==	==	==	==	==	==	==	==	==	==	==
*-	*-	*-	*-	*-	*-	*-	*-	*-	*-	*-	*-	*-	*-	*-	*-	*-	*-	*-	*-	*-	*-
!!!system-decoration: [(g1)][(g2)][(g3)]s9
!!!RDF**kern: > = above
!!!RDF**kern: < = below
!!!RDF**kern: | = vertical stroke
!!!ENC: Andrzej Gręziak
!!!END: 2020-09-19
!!!ENC: Wojciech Jakubiak-Danek
!!!END: 2022-01-31
!!!EED: Marta Lawrence
!!!EST: revision finished 2022-12-07
!!!ENC-modern: Marta Lawrence
!!!END-mod: 2022-12-07
!!!YEC: Copyright 2022 Narodowy Instytut Fryderyka Chopina (https://polishscores.org)
!!!YEM: License CC-BY-4.0 (https://creativecommons.org/licenses/by/4.0)
!!!filter-modern: sic -sq | autostem -r | tie -s | shed -e "s/yy//" | shed -e "s/TX(.*):t=P:/tx$1:t=P:/LG" | shed -e "s/^(\d+[\/\\]right)/$1yy/I; s/^(\d+[\/\\]left)/$1yy/I" | shed -e "s/LO:DY:(a|b|rj)/LO:dy:$1/L" | shed -e "s/^(X?)rep$/$1REP/I" | modori -m
